X: 35073
T: Rolling In The Ryegrass
R: reel
M: 4/4
K: Dmajor
|ABAF DEFA|GABG dGBG|ABAF DEFA|BAAF EDEF|
ABAF DEFD|(3GGGBG DGBG|ABAF DEFG|BGAG FDDF|
A3A DEFG|G2BG dGBG|A3F F3A|BFAF EFD2|
ABAF DE(3FED|GABG dBAG|ABAF EDdc|BAAF EDdB|
[A4D4] ffef|fg2e fedB|(3ABcde f3a|afdf eddB|
ABde f3e|(3gggfd edBd|ABde [d3f3]a|afdf edBd|
ABde fd(3ddd|gdfd ed(3ddd|ABde fd(3ddd|afed ed(3Bcd|
ABde fefa|g2fg ed(3BBB|ABde fefb|afdf (3efe[d4D4]|

